X: 4297
T: APPLES IN WINTER
%R: reel
B: James Kerr "Merry Melodies" v.4 p.31 #297
Z: 2016 John Chambers <jc:trillian.mit.edu>
N: Added rest in 1st strain's 2nd ending, to fix the rhythm.
M: C|
L: 1/8
K: G
|:\
d2d2 efge | ded^c d2B2 | =cdcB c2A2 |\
[1,3 BcBA B2G2 :|[2,4 G2B2G2 z2 |:\
A2FD B2GD | cdcB A2A2 |
B2GD c2AF | dedc B2B2 |\
^c2c2 efge | fgfe d2d2 | efed ^cABc |\
[1 d2f2d2 z2 :|[2 d^cde d=c"_D.C."Bc |]

%%sep 1 1 500
%%sep 1 1 500

